icons/lifebuoy-line.svg

<svg xmlns="http://www.w3.org/2000/svg" width="24" height="24" fill="none"><g clip-path="url(#a)"><g><path fill="#121212" d="M12 2C17.523 2 22 6.477 22 12C22 17.523 17.523 22 12 22C6.477 22 2 17.523 2 12C2 6.477 6.477 2 12 2ZM12 17C11.3744 17.0007 10.7543 16.8836 10.172 16.655L7.936 18.892C9.16665 19.6194 10.5704 20.0022 12 20C13.4296 20.0022 14.8333 19.6194 16.064 18.892L13.828 16.655C13.2457 16.8836 12.6256 17.0007 12 17ZM4 12C4 13.484 4.404 14.873 5.108 16.064L7.345 13.828C7.11636 13.2457 6.99933 12.6256 7 12C7 11.355 7.122 10.739 7.345 10.172L5.108 7.936C4.38057 9.16665 3.99784 10.5704 4 12ZM18.892 7.936L16.655 10.172C16.878 10.739 17 11.355 17 12C17 12.645 16.878 13.261 16.655 13.828L18.892 16.064C19.6194 14.8333 20.0022 13.4296 20 12C20.0022 10.5704 19.6194 9.16665 18.892 7.936ZM12 9C11.2044 9 10.4413 9.31607 9.87868 9.87868C9.31607 10.4413 9 11.2044 9 12C9 12.7956 9.31607 13.5587 9.87868 14.1213C10.4413 14.6839 11.2044 15 12 15C12.7956 15 13.5587 14.6839 14.1213 14.1213C14.6839 13.5587 15 12.7956 15 12C15 11.2044 14.6839 10.4413 14.1213 9.87868C13.5587 9.31607 12.7956 9 12 9ZM12 4C10.5704 3.99784 9.16665 4.38057 7.936 5.108L10.172 7.345C10.7543 7.11636 11.3744 6.99933 12 7C12.645 7 13.261 7.122 13.828 7.345L16.064 5.108C14.8333 4.38057 13.4296 3.99784 12 4Z"/></g></g><defs><clipPath id="a"><rect width="24" height="24" fill="white"/></clipPath></defs></svg>

<svg width="24" height="24" fill="none" xmlns="http://www.w3.org/2000/svg"><g clip-path="url(#a)"><path d="M12 2c5.523 0 10 4.477 10 10s-4.477 10-10 10S2 17.523 2 12 6.477 2 12 2Zm0 15a4.987 4.987 0 0 1-1.828-.345l-2.236 2.237A7.963 7.963 0 0 0 12 20a7.963 7.963 0 0 0 4.064-1.108l-2.236-2.237A4.987 4.987 0 0 1 12 17Zm-8-5a7.96 7.96 0 0 0 1.108 4.064l2.237-2.236A4.987 4.987 0 0 1 7 12c0-.645.122-1.261.345-1.828L5.108 7.936A7.963 7.963 0 0 0 4 12Zm14.892-4.064-2.237 2.236c.223.567.345 1.183.345 1.828s-.122 1.261-.345 1.828l2.237 2.236A7.963 7.963 0 0 0 20 12a7.963 7.963 0 0 0-1.108-4.064ZM12 9a3 3 0 1 0 0 6 3 3 0 0 0 0-6Zm0-5a7.963 7.963 0 0 0-4.064 1.108l2.236 2.237A4.987 4.987 0 0 1 12 7c.645 0 1.261.122 1.828.345l2.236-2.237A7.963 7.963 0 0 0 12 4Z" /></g><defs><clipPath id="a"><path fill="#fff" d="M0 0h24v24H0z"/></clipPath></defs></svg>
